X: 26435
T: Merry Sisters, The
R: reel
M: 4/4
K: Edorian
|:BE~E2 BdcA|BE~E2 ADFA|BE~E2 BdcA|dD~D2 ADFA:|
|:Beec d2 cA|Beed BAFA|Beec d2cA|B3c dAFA|
Beec d2 cA|Beef g2fg|afge fdec|BABc dAFA||
|:BdcA BdAc|BE~E2 BEFA|BdcA BdAF|AD~D2 ADFA|
BdcA BdAc|BE~E2 BEFE|DEFA (3Bcd eg|fdec dBcA||

